svgs/light/salad.svg

<svg xmlns="http://www.w3.org/2000/svg" viewBox="0 0 512 512"><!--! Font Awesome Pro 6.3.0 by @fontawesome - https://fontawesome.com License - https://fontawesome.com/license (Commercial License) Copyright 2023 Fonticons, Inc. --><path d="M495.8 288H16.19c-9.123 0-16.89 7.75-16.14 16.88c6.748 76.38 58.25 139.4 128.1 163.9V480c.125 17.75 14.34 32 32.09 32h192.2c17.62 0 31.48-14.38 31.48-32v-11.5c69.49-24.62 121.4-87.5 127.1-163.6C512.7 295.8 504.9 288 495.8 288zM373.7 438.4l-21.75 7.5V480H160v-34l-21.25-7.5C85.16 419.8 45.79 374.3 34.67 320h442.7C466.2 374.1 427.1 419.4 373.7 438.4zM84.69 148.7c-6.25 6.25-6.25 16.38 0 22.62l80 80C167.8 254.4 171.9 256 176 256s8.188-1.562 11.31-4.688c6.25-6.25 6.25-16.38 0-22.62l-80-80C101.1 142.4 90.94 142.4 84.69 148.7zM224 112v128C224 248.8 231.2 256 240 256S256 248.8 256 240v-128C256 103.2 248.8 96 240 96S224 103.2 224 112zM288 240C288 248.8 295.2 256 304 256S320 248.8 320 240C320 195.9 355.9 160 400 160S480 195.9 480 240C480 248.8 487.2 256 496 256s16-7.123 16-15.97C512 178.3 461.8 128 400 128S288 178.3 288 240zM26.88 256c2.312 0 4.656-.5 6.875-1.547C41.72 250.7 45.13 241.1 41.31 233.1C35.13 220.1 32 206.2 32 191.7c0-53.11 43.06-96.33 96-96.33c4.188 0 8.219 .6562 13.69 1.453L154.1 98.61l4.719-11.64C172.3 53.58 204.2 32 240 32s67.66 21.58 81.16 54.97l6.156 11.45l12.47-1.828c17.75-2.656 36.72 .0625 53.31 8c8.031 3.828 17.53 .4531 21.34-7.547c3.812-7.969 .4375-17.52-7.531-21.33c-19.16-9.156-39.72-14.05-61.34-12.08C324.9 24.61 284.7 0 240 0S155.1 24.61 134.4 63.63C132.3 63.45 130.2 63.34 128 63.34c-70.59 0-128 57.56-128 128.3c0 19.31 4.188 37.88 12.44 55.2C15.16 252.6 20.91 256 26.88 256z"/></svg>

<svg xmlns="http://www.w3.org/2000/svg" viewBox="0 0 512 512"><!-- Font Awesome Pro 6.0.0-alpha2 by @fontawesome - https://fontawesome.com License - https://fontawesome.com/license (Commercial License) --><path d="M495.828 288H16.172C7.049 288 -0.699 295.75 0.051 304.875C6.799 381.25 58.164 444.25 128.025 468.75V480C128.15 497.75 142.521 512 160.27 512H352.48C370.104 512 383.975 497.625 383.975 480V468.5C453.461 443.875 505.326 381 511.949 304.875C512.699 295.75 504.951 288 495.828 288ZM373.727 438.375L351.98 445.875V480H160.02V446L138.773 438.5C85.158 419.75 45.791 374.25 34.668 320H477.332C466.209 374.125 427.092 419.375 373.727 438.375ZM84.688 148.688C78.438 154.938 78.438 165.063 84.688 171.312L164.688 251.312C167.812 254.438 171.906 256 176 256S184.188 254.438 187.312 251.312C193.562 245.062 193.562 234.937 187.312 228.688L107.312 148.688C101.062 142.438 90.938 142.438 84.688 148.688ZM224 112V240C224 248.844 231.156 256 240 256S256 248.844 256 240V112C256 103.156 248.844 96 240 96S224 103.156 224 112ZM288 240C288 248.844 295.156 256 304 256S320 248.844 320 240C320 195.891 355.875 160 400 160S480 195.891 480 240C480 248.844 487.156 256 496 256S512 248.844 512 240C512 178.25 461.75 128 400 128S288 178.25 288 240ZM26.875 256C29.188 256 31.531 255.5 33.75 254.453C41.719 250.656 45.125 241.109 41.312 233.125C35.125 220.125 32 206.188 32 191.672C32 138.562 75.062 95.344 128 95.344C132.188 95.344 136.219 96 141.688 96.797L154.125 98.609L158.844 86.969C172.344 53.578 204.219 32 240 32S307.656 53.578 321.156 86.969L327.312 98.422L339.781 96.594C357.531 93.938 376.5 96.656 393.094 104.594C401.125 108.422 410.625 105.047 414.437 97.047C418.25 89.078 414.875 79.531 406.906 75.719C387.75 66.563 367.187 61.672 345.562 63.641C324.906 24.609 284.719 0 240 0S155.094 24.609 134.438 63.625C132.312 63.453 130.156 63.344 128 63.344C57.406 63.344 0 120.906 0 191.672C0 210.984 4.188 229.547 12.438 246.875C15.156 252.641 20.906 256 26.875 256Z"/></svg>
